static/card-icons/megaphone.svg

<svg height="682.66669" viewBox="0 0 682.66669 682.66669" width="682.66669" xmlns="http://www.w3.org/2000/svg"><g style="fill:none;stroke:#000;stroke-width:30;stroke-linecap:round;stroke-linejoin:round;stroke-miterlimit:22.926"><path d="m0 0c-40.921-34.892-81.391-63.759-123.625-82.477-48.026-21.285-98.323-28.045-147.47-27.334v-106.538-106.49c49.147.712 99.444-6.001 147.47-27.286 41.817-18.533 81.905-47.049 122.414-81.462" transform="matrix(1.3333333 0 0 -1.3333333 560.12625266351 32.02868626595)"/><path d="m0 0c33.046 0 60 101.074 60 225s-26.954 225-60 225c-33.047 0-60-101.074-60-225s26.953-225 60-225z" transform="matrix(1.3333333 0 0 -1.3333333 582.66731876665 620.0000049)"/><path d="m0 0c32.95-5.104 58.383-33.775 58.383-68.098 0-33.087-23.633-60.921-54.853-67.456" transform="matrix(1.3333333 0 0 -1.3333333 507.48958731276 229.05854800687)"/><path d="m0 0h-68c-36.352 0-66-29.648-66-66v-81c0-36.352 29.648-66 66-66h68z" transform="matrix(1.3333333 0 0 -1.3333333 198.6666617 178.76561593086)"/><path d="m0 0-40.276-117.696c-4.849-14.101-17.363-23.304-32.274-23.304h-1.45c-18.727 0-34 15.273-34 34v115.926" transform="matrix(1.3333333 0 0 -1.3333333 282.6666596 474.6666752)"/></g></svg>

<?xml version="1.0" encoding="UTF-8" standalone="no"?>
<!-- Created with Inkscape (http://www.inkscape.org/) -->

<svg
   version="1.1"
   id="svg3087"
   xml:space="preserve"
   width="682.66669"
   height="682.66669"
   viewBox="0 0 682.66669 682.66669"
   xmlns="http://www.w3.org/2000/svg"
   xmlns:svg="http://www.w3.org/2000/svg"><defs
     id="defs3091"><clipPath
       clipPathUnits="userSpaceOnUse"
       id="clipPath3101"><path
         d="M 0,512 H 512 V 0 H 0 Z"
         id="path3099" /></clipPath></defs><g
     id="g3093"
     transform="matrix(1.3333333,0,0,-1.3333333,0,682.66667)"><g
       id="g3095"><g
         id="g3097"
         clipPath="url(#clipPath3101)"><g
           id="g3103"
           transform="translate(420.0947,487.9785)"><path
             d="m 0,0 c -40.921,-34.892 -81.391,-63.759 -123.625,-82.477 -48.026,-21.285 -98.323,-28.045 -147.47,-27.334 v -106.538 -106.49 c 49.147,0.712 99.444,-6.001 147.47,-27.286 41.817,-18.533 81.905,-47.049 122.414,-81.462"
             style="fill:none;stroke:#000000;stroke-width:30;stroke-linecap:round;stroke-linejoin:round;stroke-miterlimit:22.926;stroke-dasharray:none;stroke-opacity:1"
             id="path3105" /></g><g
           id="g3107"
           transform="translate(437.0005,47)"><path
             d="M 0,0 C 33.046,0 60,101.074 60,225 60,348.926 33.046,450 0,450 -33.047,450 -60,348.926 -60,225 -60,101.074 -33.047,0 0,0 Z"
             style="fill:none;stroke:#000000;stroke-width:30;stroke-linecap:round;stroke-linejoin:round;stroke-miterlimit:22.926;stroke-dasharray:none;stroke-opacity:1"
             id="path3109" /></g><g
           id="g3111"
           transform="translate(380.6172,340.2061)"><path
             d="m 0,0 c 32.95,-5.104 58.383,-33.775 58.383,-68.098 0,-33.087 -23.633,-60.921 -54.853,-67.456"
             style="fill:none;stroke:#000000;stroke-width:30;stroke-linecap:round;stroke-linejoin:round;stroke-miterlimit:22.926;stroke-dasharray:none;stroke-opacity:1"
             id="path3113" /></g><g
           id="g3115"
           transform="translate(149,377.9258)"><path
             d="m 0,0 h -68 c -36.352,0 -66,-29.648 -66,-66 v -81 c 0,-36.352 29.648,-66 66,-66 H 0 Z"
             style="fill:none;stroke:#000000;stroke-width:30;stroke-linecap:round;stroke-linejoin:round;stroke-miterlimit:22.926;stroke-dasharray:none;stroke-opacity:1"
             id="path3117" /></g><g
           id="g3119"
           transform="translate(212,156)"><path
             d="M 0,0 -40.276,-117.696 C -45.125,-131.797 -57.639,-141 -72.55,-141 H -74 c -18.727,0 -34,15.273 -34,34 V 8.926"
             style="fill:none;stroke:#000000;stroke-width:30;stroke-linecap:round;stroke-linejoin:round;stroke-miterlimit:22.926;stroke-dasharray:none;stroke-opacity:1"
             id="path3121" /></g></g></g></g></svg>
